argon/scalable/apps/org.gnome.Glade.svg

<ns0:svg xmlns:ns0="http://www.w3.org/2000/svg" xmlns:ns1="http://sodipodi.sourceforge.net/DTD/sodipodi-0.dtd" xmlns:ns2="http://www.inkscape.org/namespaces/inkscape" ns1:docname="org.gnome.Glade.svg" id="svg8" version="1.1" viewBox="0 0 67.733332 67.733335" height="256" width="256">
  <ns0:defs id="defs2" />
  <ns1:namedview ns2:window-maximized="1" ns2:window-y="27" ns2:window-x="1920" ns2:window-height="1016" ns2:window-width="1920" units="px" showgrid="false" ns2:document-rotation="0" ns2:current-layer="g1156" ns2:document-units="px" ns2:cy="198.58302" ns2:cx="134.84382" ns2:zoom="1.7650049" ns2:pageshadow="2" ns2:pageopacity="0.0" borderopacity="1.0" bordercolor="#666666" pagecolor="#ffffff" id="base" ns2:pagecheckerboard="0" />
  <ns0:g ns2:groupmode="layer" id="layer1" ns2:label="Background" style="display:inline">
    <ns0:g ns2:label="Shadow" id="layer10" ns2:groupmode="layer" style="display:inline;opacity:0.4">
      <ns0:path id="path1156" style="display:inline;fill:#000000;fill-opacity:1;stroke-width:0.0246944;stroke-miterlimit:4;stroke-dasharray:none;paint-order:stroke fill markers" d="m 9.2257934,11.641667 c -2.7655985,0 -4.9924601,2.22686 -4.9924601,4.99246 V 28.575 v 12.7 11.940873 c 0,2.7656 2.2268616,4.99246 4.9924601,4.99246 H 58.507539 c 2.7656,0 4.99246,-2.22686 4.99246,-4.99246 V 41.275 28.575 16.634127 c 0,-2.7656 -2.22686,-4.99246 -4.99246,-4.99246 z" />
    </ns0:g>
    <ns0:g style="display:inline" ns2:label="Colour" id="g1174" ns2:groupmode="layer">
      <ns0:path id="rect1168" style="display:inline;fill:#1a9dff;fill-opacity:1;stroke-width:0.0246944;stroke-miterlimit:4;stroke-dasharray:none;paint-order:stroke fill markers" d="m 9.2257934,10.583333 c -2.7655985,0 -4.9924601,2.22686 -4.9924601,4.99246 v 11.940873 12.7 11.940873 c 0,2.765599 2.2268616,4.99246 4.9924601,4.99246 H 58.507539 c 2.7656,0 4.99246,-2.226861 4.99246,-4.99246 v -11.940873 -12.7 -11.940873 c 0,-2.7656 -2.22686,-4.99246 -4.99246,-4.99246 z" />
    </ns0:g>
    <ns0:g ns2:groupmode="layer" id="layer2" ns2:label="Highlight" style="opacity:0.1">
      <ns0:path id="path1159" style="display:inline;fill:#ffffff;fill-opacity:1;stroke-width:0.0246944;stroke-miterlimit:4;stroke-dasharray:none;paint-order:stroke fill markers" d="m 9.2257934,10.583333 c -2.7655985,0 -4.9924601,2.22686 -4.9924601,4.99246 v 1.058333 c 0,-2.7656 2.2268616,-4.99246 4.9924601,-4.99246 H 58.507539 c 2.7656,0 4.99246,2.22686 4.99246,4.99246 v -1.058333 c 0,-2.7656 -2.22686,-4.99246 -4.99246,-4.99246 z" />
    </ns0:g>
  </ns0:g>
  <ns0:g ns2:label="Graphic" id="g1156" ns2:groupmode="layer" style="display:inline">
    <ns0:g id="g1189" transform="translate(0,-4.2333336)">
      <ns0:g id="g1147">
        <ns0:path id="rect839" style="display:inline;opacity:1;fill:#ffffff;stroke-width:5.2591;stroke-linecap:round;stroke-linejoin:round;paint-order:markers fill stroke" d="m 42,84 c -2.216001,0 -4,1.784003 -4,4 v 24 88 c 0,2.216 1.783999,4 4,4 h 172 c 0.277,0 0.54773,-0.0268 0.80859,-0.0801 C 216.63462,203.54817 218,201.939 218,200 V 112 88 c 0,-2.215997 -1.784,-4 -4,-4 z m 4,8 h 164 v 16 H 46 Z m 0,24 h 164 v 80 H 46 Z" transform="scale(0.26458333)" />
        <ns0:g id="g915" transform="translate(0,4.2333337)">
          <ns0:circle style="opacity:1;fill:none;stroke:#ffffff;stroke-width:1.05833;stroke-linecap:round;stroke-linejoin:round;stroke-miterlimit:4;stroke-dasharray:none;paint-order:markers fill stroke" id="path851" cx="20.902084" cy="33.072914" r="1.8520833" />
          <ns0:rect style="display:inline;opacity:1;fill:#ffffff;stroke-width:0.803362;stroke-linecap:round;stroke-linejoin:round;paint-order:markers fill stroke" id="rect855" width="1.0583333" height="21.166666" x="-34.131252" y="25.135416" ry="0.52916664" transform="rotate(-90)" />
          <ns0:circle style="opacity:1;fill:none;stroke:#ffffff;stroke-width:1.05833;stroke-linecap:round;stroke-linejoin:round;stroke-miterlimit:4;stroke-dasharray:none;paint-order:markers fill stroke" id="circle857" cx="20.902084" cy="41.010414" r="1.8520833" />
          <ns0:rect style="display:inline;opacity:1;fill:#ffffff;stroke-width:0.803362;stroke-linecap:round;stroke-linejoin:round;paint-order:markers fill stroke" id="rect859" width="1.0583333" height="21.166666" x="-42.068752" y="25.135416" ry="0.52916664" transform="rotate(-90)" />
        </ns0:g>
      </ns0:g>
      <ns0:g id="g1176">
        <ns0:path id="rect867" style="opacity:0.5;fill:#ffffff;stroke:none;stroke-width:3.54048;stroke-linecap:round;stroke-linejoin:round;stroke-miterlimit:4;stroke-dasharray:none;paint-order:markers fill stroke" d="M 39.173828,66 C 38.523401,66 38,66.523401 38,67.173828 V 71 77 80.826172 C 38,81.476599 38.523401,82 39.173828,82 h 3.652344 C 43.476599,82 44,81.476599 44,80.826172 V 77 h 168 v 3.826172 C 212,81.476599 212.5234,82 213.17383,82 h 3.65234 C 217.4766,82 218,81.476599 218,80.826172 V 77 71 67.173828 C 218,66.523401 217.4766,66 216.82617,66 h -3.65234 C 212.5234,66 212,66.523401 212,67.173828 V 71 H 44 V 67.173828 C 44,66.523401 43.476599,66 42.826172,66 Z" transform="scale(0.26458333)" />
        <ns0:path id="rect861" style="opacity:0.5;fill:#ffffff;stroke:none;stroke-width:3.54048;stroke-linecap:round;stroke-linejoin:round;stroke-miterlimit:4;stroke-dasharray:none;paint-order:markers fill stroke" d="M 223.17383,84 C 222.5234,84 222,84.523401 222,85.173828 v 3.652344 C 222,89.476599 222.5234,90 223.17383,90 H 227 v 20 h -3.82617 C 222.5234,110 222,110.5234 222,111.17383 v 3.65234 C 222,115.4766 222.5234,116 223.17383,116 H 227 h 6 3.82617 C 237.4766,116 238,115.4766 238,114.82617 v -3.65234 C 238,110.5234 237.4766,110 236.82617,110 H 233 V 90 h 3.82617 C 237.4766,90 238,89.476599 238,88.826172 V 85.173828 C 238,84.523401 237.4766,84 236.82617,84 H 233 227 Z" transform="scale(0.26458333)" />
        <ns0:path id="rect881" style="opacity:0.5;fill:#ffffff;stroke:none;stroke-width:3.54048;stroke-linecap:round;stroke-linejoin:round;stroke-miterlimit:4;stroke-dasharray:none;paint-order:markers fill stroke" d="M 21.173828,84 C 20.523401,84 20,84.523401 20,85.173828 v 3.652344 C 20,89.476599 20.523401,90 21.173828,90 H 25 V 198 H 21.173828 C 20.523401,198 20,198.5234 20,199.17383 v 3.65234 C 20,203.4766 20.523401,204 21.173828,204 H 25 31 34.826172 C 35.476599,204 36,203.4766 36,202.82617 v -3.65234 C 36,198.5234 35.476599,198 34.826172,198 H 31 V 90 h 3.826172 C 35.476599,90 36,89.476599 36,88.826172 V 85.173828 C 36,84.523401 35.476599,84 34.826172,84 H 31 25 Z" transform="scale(0.26458333)" />
      </ns0:g>
    </ns0:g>
    <ns0:g id="g1138" transform="translate(0,-4.2333336)">
      <ns0:path id="rect938" style="fill:#f6ff00;fill-opacity:1;stroke:none;stroke-width:5.35149;stroke-linecap:round;stroke-linejoin:round;stroke-miterlimit:4;stroke-dasharray:none;paint-order:markers fill stroke" d="M 60.677954,21.695833 13.758333,58.561319 h 46.919621 z m -3.704167,7.981188 V 54.87077 H 24.28844 Z" />
      <ns0:path id="path1131" style="fill:#333333;stroke:none;stroke-width:1.54714;stroke-linecap:round;stroke-linejoin:round;stroke-miterlimit:4;stroke-dasharray:none;paint-order:markers fill stroke" d="m 29.104166,56.444615 v 2.116666 H 30.1625 v -2.116666 z m 13.229167,0 v 2.116666 h 1.058333 v -2.116666 z m 13.229166,0 v 2.116666 h 1.058334 v -2.116666 z m -37.041666,0.529166 v 1.5875 h 1.058333 v -1.5875 z m 2.645833,0 v 1.5875 H 22.225 v -1.5875 z m 2.645834,0 v 1.5875 h 1.058333 v -1.5875 z m 2.645833,0 v 1.5875 h 1.058333 v -1.5875 z m 5.291667,0 v 1.5875 h 1.058333 v -1.5875 z m 2.645833,0 v 1.5875 h 1.058333 v -1.5875 z m 2.645833,0 v 1.5875 H 38.1 v -1.5875 z m 2.645834,0 v 1.5875 h 1.058333 v -1.5875 z m 5.291666,0 v 1.5875 h 1.058333 v -1.5875 z m 2.645833,0 v 1.5875 h 1.058334 v -1.5875 z m 2.645834,0 v 1.5875 h 1.058333 v -1.5875 z m 2.645833,0 v 1.5875 h 1.058333 v -1.5875 z m 5.291667,0 v 1.5875 h 1.058333 v -1.5875 z" />
    </ns0:g>
  </ns0:g>
</ns0:svg>

<ns0:svg xmlns:ns0="http://www.w3.org/2000/svg" xmlns:ns1="http://sodipodi.sourceforge.net/DTD/sodipodi-0.dtd" xmlns:ns2="http://www.inkscape.org/namespaces/inkscape" ns1:docname="org.gnome.Glade.svg" id="svg8" version="1.1" viewBox="0 0 67.733332 67.733335" height="256" width="256">
  <ns0:defs id="defs2" />
  <ns1:namedview ns2:window-maximized="1" ns2:window-y="27" ns2:window-x="1920" ns2:window-height="1016" ns2:window-width="1920" units="px" showgrid="false" ns2:document-rotation="0" ns2:current-layer="g1156" ns2:document-units="px" ns2:cy="179.90877" ns2:cx="159.94193" ns2:zoom="2.4960938" ns2:pageshadow="2" ns2:pageopacity="0.0" borderopacity="1.0" bordercolor="#666666" pagecolor="#ffffff" id="base" />
  <ns0:g ns2:groupmode="layer" id="layer1" ns2:label="Background" style="display:inline">
    <ns0:g ns2:label="Shadow" id="layer10" ns2:groupmode="layer" style="display:inline;opacity:0.4">
      <ns0:path id="path1156" style="display:inline;fill:#000000;fill-opacity:1;stroke-width:0.0246944;stroke-miterlimit:4;stroke-dasharray:none;paint-order:stroke fill markers" d="m 9.2257934,15.875001 c -2.7655985,0 -4.9924601,2.22686 -4.9924601,4.99246 v 11.940873 12.7 11.940873 c 0,2.7656 2.2268616,4.99246 4.9924601,4.99246 H 58.507539 c 2.7656,0 4.99246,-2.22686 4.99246,-4.99246 v -11.940873 -12.7 -11.940873 c 0,-2.7656 -2.22686,-4.99246 -4.99246,-4.99246 z" />
    </ns0:g>
    <ns0:g style="display:inline" ns2:label="Colour" id="g1174" ns2:groupmode="layer">
      <ns0:path id="rect1168" style="display:inline;fill:#1a9dff;fill-opacity:1;stroke-width:0.0246944;stroke-miterlimit:4;stroke-dasharray:none;paint-order:stroke fill markers" d="m 9.2257934,14.816667 c -2.7655985,0 -4.9924601,2.22686 -4.9924601,4.99246 V 31.75 44.45 56.390873 c 0,2.765599 2.2268616,4.99246 4.9924601,4.99246 H 58.507539 c 2.7656,0 4.99246,-2.226861 4.99246,-4.99246 V 44.45 31.75 19.809127 c 0,-2.7656 -2.22686,-4.99246 -4.99246,-4.99246 z" />
    </ns0:g>
    <ns0:g ns2:groupmode="layer" id="layer2" ns2:label="Highlight" style="opacity:0.1">
      <ns0:path id="path1159" style="display:inline;fill:#ffffff;fill-opacity:1;stroke-width:0.0246944;stroke-miterlimit:4;stroke-dasharray:none;paint-order:stroke fill markers" d="m 9.2257934,14.816667 c -2.7655985,0 -4.9924601,2.22686 -4.9924601,4.99246 v 1.058333 c 0,-2.7656 2.2268616,-4.99246 4.9924601,-4.99246 H 58.507539 c 2.7656,0 4.99246,2.22686 4.99246,4.99246 v -1.058333 c 0,-2.7656 -2.22686,-4.99246 -4.99246,-4.99246 z" />
    </ns0:g>
  </ns0:g>
  <ns0:g ns2:label="Graphic" id="g1156" ns2:groupmode="layer" style="display:inline">
    <ns0:g id="g1189">
      <ns0:g id="g1147">
        <ns0:path id="rect839" style="display:inline;opacity:1;fill:#ffffff;stroke-width:5.2591;stroke-linecap:round;stroke-linejoin:round;paint-order:markers fill stroke" d="M 42 84 C 39.783999 84 38 85.784003 38 88 L 38 112 L 38 200 C 38 202.216 39.783999 204 42 204 L 214 204 C 214.277 204 214.54773 203.97318 214.80859 203.91992 C 216.63462 203.54817 218 201.939 218 200 L 218 112 L 218 88 C 218 85.784003 216.216 84 214 84 L 42 84 z M 46 92 L 210 92 L 210 108 L 46 108 L 46 92 z M 46 116 L 210 116 L 210 196 L 46 196 L 46 116 z " transform="scale(0.26458333)" />
        <ns0:g id="g915" transform="translate(0,4.2333337)">
          <ns0:circle style="opacity:1;fill:none;stroke:#ffffff;stroke-width:1.05833;stroke-linecap:round;stroke-linejoin:round;stroke-miterlimit:4;stroke-dasharray:none;paint-order:markers fill stroke" id="path851" cx="20.902084" cy="33.072914" r="1.8520833" />
          <ns0:rect style="display:inline;opacity:1;fill:#ffffff;stroke-width:0.803362;stroke-linecap:round;stroke-linejoin:round;paint-order:markers fill stroke" id="rect855" width="1.0583333" height="21.166666" x="-34.131252" y="25.135416" ry="0.52916664" transform="rotate(-90)" />
          <ns0:circle style="opacity:1;fill:none;stroke:#ffffff;stroke-width:1.05833;stroke-linecap:round;stroke-linejoin:round;stroke-miterlimit:4;stroke-dasharray:none;paint-order:markers fill stroke" id="circle857" cx="20.902084" cy="41.010414" r="1.8520833" />
          <ns0:rect style="display:inline;opacity:1;fill:#ffffff;stroke-width:0.803362;stroke-linecap:round;stroke-linejoin:round;paint-order:markers fill stroke" id="rect859" width="1.0583333" height="21.166666" x="-42.068752" y="25.135416" ry="0.52916664" transform="rotate(-90)" />
        </ns0:g>
      </ns0:g>
      <ns0:g id="g1176">
        <ns0:path id="rect867" style="opacity:0.5;fill:#ffffff;stroke:none;stroke-width:3.54048;stroke-linecap:round;stroke-linejoin:round;stroke-miterlimit:4;stroke-dasharray:none;paint-order:markers fill stroke" d="M 39.173828 66 C 38.523401 66 38 66.523401 38 67.173828 L 38 71 L 38 77 L 38 80.826172 C 38 81.476599 38.523401 82 39.173828 82 L 42.826172 82 C 43.476599 82 44 81.476599 44 80.826172 L 44 77 L 212 77 L 212 80.826172 C 212 81.476599 212.5234 82 213.17383 82 L 216.82617 82 C 217.4766 82 218 81.476599 218 80.826172 L 218 77 L 218 71 L 218 67.173828 C 218 66.523401 217.4766 66 216.82617 66 L 213.17383 66 C 212.5234 66 212 66.523401 212 67.173828 L 212 71 L 44 71 L 44 67.173828 C 44 66.523401 43.476599 66 42.826172 66 L 39.173828 66 z " transform="scale(0.26458333)" />
        <ns0:path id="rect861" style="opacity:0.5;fill:#ffffff;stroke:none;stroke-width:3.54048;stroke-linecap:round;stroke-linejoin:round;stroke-miterlimit:4;stroke-dasharray:none;paint-order:markers fill stroke" d="M 223.17383 84 C 222.5234 84 222 84.523401 222 85.173828 L 222 88.826172 C 222 89.476599 222.5234 90 223.17383 90 L 227 90 L 227 110 L 223.17383 110 C 222.5234 110 222 110.5234 222 111.17383 L 222 114.82617 C 222 115.4766 222.5234 116 223.17383 116 L 227 116 L 233 116 L 236.82617 116 C 237.4766 116 238 115.4766 238 114.82617 L 238 111.17383 C 238 110.5234 237.4766 110 236.82617 110 L 233 110 L 233 90 L 236.82617 90 C 237.4766 90 238 89.476599 238 88.826172 L 238 85.173828 C 238 84.523401 237.4766 84 236.82617 84 L 233 84 L 227 84 L 223.17383 84 z " transform="scale(0.26458333)" />
        <ns0:path id="rect881" style="opacity:0.5;fill:#ffffff;stroke:none;stroke-width:3.54048;stroke-linecap:round;stroke-linejoin:round;stroke-miterlimit:4;stroke-dasharray:none;paint-order:markers fill stroke" d="M 21.173828 84 C 20.523401 84 20 84.523401 20 85.173828 L 20 88.826172 C 20 89.476599 20.523401 90 21.173828 90 L 25 90 L 25 198 L 21.173828 198 C 20.523401 198 20 198.5234 20 199.17383 L 20 202.82617 C 20 203.4766 20.523401 204 21.173828 204 L 25 204 L 31 204 L 34.826172 204 C 35.476599 204 36 203.4766 36 202.82617 L 36 199.17383 C 36 198.5234 35.476599 198 34.826172 198 L 31 198 L 31 90 L 34.826172 90 C 35.476599 90 36 89.476599 36 88.826172 L 36 85.173828 C 36 84.523401 35.476599 84 34.826172 84 L 31 84 L 25 84 L 21.173828 84 z " transform="scale(0.26458333)" />
      </ns0:g>
    </ns0:g>
    <ns0:g id="g1138">
      <ns0:path id="rect938" style="fill:#f6ff00;fill-opacity:1;stroke:none;stroke-width:5.35149;stroke-linecap:round;stroke-linejoin:round;stroke-miterlimit:4;stroke-dasharray:none;paint-order:markers fill stroke" d="M 60.677954,21.695833 13.758333,58.561319 h 46.919621 z m -3.704167,7.981188 V 54.87077 H 24.28844 Z" />
      <ns0:path id="path1131" style="fill:#333333;stroke:none;stroke-width:1.54714;stroke-linecap:round;stroke-linejoin:round;stroke-miterlimit:4;stroke-dasharray:none;paint-order:markers fill stroke" d="m 29.104166,56.444615 v 2.116666 H 30.1625 v -2.116666 z m 13.229167,0 v 2.116666 h 1.058333 v -2.116666 z m 13.229166,0 v 2.116666 h 1.058334 v -2.116666 z m -37.041666,0.529166 v 1.5875 h 1.058333 v -1.5875 z m 2.645833,0 v 1.5875 H 22.225 v -1.5875 z m 2.645834,0 v 1.5875 h 1.058333 v -1.5875 z m 2.645833,0 v 1.5875 h 1.058333 v -1.5875 z m 5.291667,0 v 1.5875 h 1.058333 v -1.5875 z m 2.645833,0 v 1.5875 h 1.058333 v -1.5875 z m 2.645833,0 v 1.5875 H 38.1 v -1.5875 z m 2.645834,0 v 1.5875 h 1.058333 v -1.5875 z m 5.291666,0 v 1.5875 h 1.058333 v -1.5875 z m 2.645833,0 v 1.5875 h 1.058334 v -1.5875 z m 2.645834,0 v 1.5875 h 1.058333 v -1.5875 z m 2.645833,0 v 1.5875 h 1.058333 v -1.5875 z m 5.291667,0 v 1.5875 h 1.058333 v -1.5875 z" />
    </ns0:g>
  </ns0:g>
</ns0:svg>
